client/public/assets/icons/standard/kanban.svg

<?xml version="1.0"?><svg xmlns="http://www.w3.org/2000/svg" width="100" height="100" viewBox="0 0 100 100"><path fill="#fff" d="m56.5 38.3c0-1-0.9-1.9-1.9-1.9h-11.2c-1 0-1.9 0.9-1.9 1.9v33.7c0 1 0.9 1.9 1.9 1.9h11.2c1 0 1.9-0.9 1.9-1.9v-33.7z m-22.5 0c0-1-0.9-1.9-1.9-1.9h-11.2c-1 0-1.9 0.9-1.9 1.9v38.7c0 1 0.9 1.9 1.9 1.9h11.2c1 0 1.9-0.9 1.9-1.9v-38.7z m45 0c0-1-0.9-1.9-1.9-1.9h-11.2c-1 0-1.9 0.9-1.9 1.9v28.7c0 1 0.9 1.9 1.9 1.9h11.2c1 0 1.9-0.9 1.9-1.9v-28.7z m0-17.5c0-1-0.9-1.9-1.9-1.9h-56.2c-1 0-1.9 0.9-1.9 1.9v6.2c0 1 0.9 1.9 1.9 1.9h56.2c1 0 1.9-0.9 1.9-1.9v-6.2z"></path></svg>

<?xml version="1.0" encoding="utf-8"?>
<!-- Generator: Adobe Illustrator 21.1.0, SVG Export Plug-In . SVG Version: 6.00 Build 0)  -->
<svg version="1.1" id="Layer_1" xmlns="http://www.w3.org/2000/svg" xmlns:xlink="http://www.w3.org/1999/xlink" x="0px" y="0px"
	 width="100px" height="100px" viewBox="0 0 100 100" enable-background="new 0 0 100 100" xml:space="preserve">
<path fill="#FFFFFF" d="M56.5,38.3c0-1-0.9-1.9-1.9-1.9H43.4c-1,0-1.9,0.9-1.9,1.9V72c0,1,0.9,1.9,1.9,1.9h11.2c1,0,1.9-0.9,1.9-1.9
	V38.3z M34,38.3c0-1-0.9-1.9-1.9-1.9H20.9c-1,0-1.9,0.9-1.9,1.9V77c0,1,0.9,1.9,1.9,1.9h11.2c1,0,1.9-0.9,1.9-1.9V38.3z M79,38.3
	c0-1-0.9-1.9-1.9-1.9H65.9c-1,0-1.9,0.9-1.9,1.9V67c0,1,0.9,1.9,1.9,1.9h11.2c1,0,1.9-0.9,1.9-1.9V38.3z M79,20.8
	c0-1-0.9-1.9-1.9-1.9H20.9c-1,0-1.9,0.9-1.9,1.9V27c0,1,0.9,1.9,1.9,1.9h56.2c1,0,1.9-0.9,1.9-1.9V20.8z"/>
</svg>
